**kern	**kern
*part1	*part1
*staff2	*staff1
*I"Piano	*
*clefF4	*clefG2
*k[f#c#g#d#]	*k[f#c#g#d#]
=1	=1
[4.BB [4.E [4.G#	[2.B [2.e [2.g#
4BB] 4E] 4G#]	.
[8EE	.
=	=
4.EE_	4.B_ 4.e_ 4.g#_
4EE]	4B] 4e] 4g#]
8E 8G# 8B	8e 8g# 8b
=	=
4.E 4.A 4.c#	4.e 4.a 4.cc#
4.E 4.F# 4.A 4.B 4.d#	4.f# 4.a 4.b 4.dd#
=	=
[4.E [4.G# [4.B [4.e	[4.g# [4.b [4.ee
4E] 4G#] 4B] 4e]	4g#] 4b] 4ee]
8E 8G# 8B	8e 8g# 8b
=	=
[4.E [4.A [4.c#	2.e 2.a 2.cc#
4E] 4A] 4c#]	.
8AA	.
=	=
[4.E [4.G# [4.B	2.e 2.g# 2.b
4E] 4G#] 4B]	.
8EE	.
=	=
[4.C# [4.E [4.A	2.c# 2.e 2.a
4C#] 4E] 4A]	.
8FF#	.
=	=
[4.D# [4.F# [4.B	2.d# 2.f# 2.b
4D#] 4F#] 4B]	.
8BBB	.
=	=
*^	*
[2.BB [2.E [2.G#	4rGG	[2.B [2.e [2.g#
.	8rGG	.
.	4rGG	.
.	[8EE	.
*v	*v	*
=	=
*-	*-
!!!system-decoration: {(s1,s2)}
